src/icons/ecr.svg

<?xml version="1.0" encoding="UTF-8"?>
<svg xmlns="http://www.w3.org/2000/svg" xmlns:xlink="http://www.w3.org/1999/xlink" width="32" height="32" viewBox="0 0 32 32" version="1.1">
<g id="surface1">
<path style=" stroke:none;fill-rule:evenodd;fill:rgb(61.56863%,31.37255%,14.509805%);fill-opacity:1;" d="M 0 16.632812 C 0 8.117188 7.136719 1.261719 16 1.261719 C 24.863281 1.261719 32 8.117188 32 16.632812 C 32 25.144531 24.863281 32 16 32 C 7.136719 32 0 25.144531 0 16.632812 Z M 0 16.632812 "/>
<path style=" stroke:none;fill-rule:evenodd;fill:rgb(61.56863%,31.37255%,14.509805%);fill-opacity:1;" d="M 0 15.367188 L 32 15.367188 L 32 16.632812 L 0 16.632812 Z M 0 15.367188 "/>
<path style=" stroke:none;fill-rule:evenodd;fill:rgb(96.078432%,52.156866%,21.176471%);fill-opacity:1;" d="M 0 15.367188 C 0 6.855469 7.136719 0 16 0 C 24.863281 0 32 6.855469 32 15.367188 C 32 23.882812 24.863281 30.738281 16 30.738281 C 7.136719 30.738281 0 23.882812 0 15.367188 Z M 0 15.367188 "/>
<path style=" stroke:none;fill-rule:evenodd;fill:rgb(100%,100%,100%);fill-opacity:1;" d="M 17.035156 13.703125 L 14.96875 13.703125 L 13.859375 4.546875 L 18.144531 4.546875 Z M 17.035156 13.703125 "/>
<path style=" stroke:none;fill-rule:evenodd;fill:rgb(100%,100%,100%);fill-opacity:1;" d="M 25.253906 20.445312 L 26.078125 19.789062 L 23.085938 15.496094 L 16.535156 13.296875 L 16 16.773438 L 21.90625 17.304688 Z M 25.253906 20.445312 "/>
<path style=" stroke:none;fill-rule:evenodd;fill:rgb(100%,100%,100%);fill-opacity:1;" d="M 6.746094 20.445312 L 5.925781 19.789062 L 8.914062 15.496094 L 15.464844 13.296875 L 16 16.773438 L 10.09375 17.304688 Z M 13.027344 4.546875 C 13.027344 2.964844 14.355469 1.691406 16 1.691406 C 17.644531 1.691406 18.96875 2.964844 18.96875 4.546875 C 18.96875 6.125 17.644531 7.398438 16 7.398438 C 14.355469 7.398438 13.027344 6.125 13.027344 4.546875 Z M 13.027344 4.546875 "/>
<path style=" stroke:none;fill-rule:evenodd;fill:rgb(96.078432%,52.156866%,21.176471%);fill-opacity:1;" d="M 16 7.652344 C 14.214844 7.652344 12.765625 6.261719 12.765625 4.546875 C 12.765625 2.828125 14.214844 1.4375 16 1.4375 C 17.785156 1.4375 19.234375 2.828125 19.234375 4.546875 C 19.234375 6.261719 17.785156 7.648438 16 7.652344 Z M 16 1.945312 C 17.496094 1.945312 18.707031 3.109375 18.707031 4.546875 C 18.707031 5.980469 17.496094 7.144531 16 7.144531 C 14.503906 7.144531 13.292969 5.980469 13.292969 4.546875 C 13.292969 3.109375 14.503906 1.945312 16 1.945312 Z M 15.027344 4.546875 C 15.027344 4.027344 15.460938 3.609375 16 3.609375 C 16.539062 3.609375 16.972656 4.027344 16.972656 4.546875 C 16.972656 5.0625 16.539062 5.480469 16 5.480469 C 15.460938 5.480469 15.027344 5.0625 15.027344 4.546875 Z M 15.027344 4.546875 "/>
<path style=" stroke:none;fill-rule:evenodd;fill:rgb(100%,100%,100%);fill-opacity:1;" d="M 13.859375 15 C 13.859375 13.859375 14.8125 12.945312 16 12.945312 C 17.1875 12.945312 18.140625 13.859375 18.140625 15 C 18.140625 16.140625 17.183594 17.054688 16 17.054688 C 14.816406 17.054688 13.859375 16.140625 13.859375 15 Z M 13.859375 15 "/>
<path style=" stroke:none;fill-rule:evenodd;fill:rgb(96.078432%,52.156866%,21.176471%);fill-opacity:1;" d="M 16 17.308594 C 14.675781 17.304688 13.601562 16.273438 13.601562 15 C 13.601562 13.726562 14.675781 12.695312 16 12.691406 C 17.324219 12.6875 18.402344 13.71875 18.40625 14.988281 C 18.410156 15.605469 18.15625 16.195312 17.703125 16.628906 C 17.253906 17.0625 16.640625 17.308594 16 17.308594 Z M 16 13.191406 C 17.035156 13.1875 17.878906 13.992188 17.882812 14.988281 C 17.886719 15.984375 17.046875 16.796875 16.011719 16.796875 C 14.972656 16.800781 14.132812 15.996094 14.128906 15 C 14.125 14.003906 14.964844 13.195312 16 13.191406 L 16 13.195312 Z M 15.34375 15 C 15.34375 14.648438 15.636719 14.367188 16 14.367188 C 16.363281 14.367188 16.65625 14.648438 16.65625 15 C 16.65625 15.351562 16.363281 15.632812 16 15.632812 C 15.636719 15.632812 15.34375 15.351562 15.34375 15 Z M 15.34375 15 "/>
<path style=" stroke:none;fill-rule:evenodd;fill:rgb(100%,100%,100%);fill-opacity:1;" d="M 9.097656 19.738281 L 22.902344 19.738281 L 22.902344 27.066406 L 9.097656 27.066406 Z M 9.097656 19.738281 "/>
<path style=" stroke:none;fill-rule:evenodd;fill:rgb(98.431373%,74.901962%,57.647061%);fill-opacity:1;" d="M 9.789062 20.328125 L 10.84375 20.328125 L 10.84375 26.476562 L 9.789062 26.476562 Z M 11.683594 20.328125 L 12.734375 20.328125 L 12.734375 26.476562 L 11.683594 26.476562 Z M 13.582031 20.328125 L 14.632812 20.328125 L 14.632812 26.476562 L 13.582031 26.476562 Z M 15.472656 20.328125 L 16.527344 20.328125 L 16.527344 26.476562 L 15.472656 26.476562 Z M 17.367188 20.328125 L 18.417969 20.328125 L 18.417969 26.476562 L 17.367188 26.476562 Z M 19.265625 20.328125 L 20.316406 20.328125 L 20.316406 26.476562 L 19.265625 26.476562 Z M 21.15625 20.328125 L 22.210938 20.328125 L 22.210938 26.476562 L 21.15625 26.476562 Z M 21.15625 20.328125 "/>
</g>
</svg>

<svg role="img" viewBox="0 0 32 32" xmlns="http://www.w3.org/2000/svg"><path d="M0 16.633C0 8.117 7.137 1.262 16 1.262s16 6.855 16 15.37C32 25.146 24.863 32 16 32S0 25.145 0 16.633m0-1.266h32v1.266H0Zm0 0" style="stroke:none;fill-rule:evenodd;fill:rgb(61.56863%,31.37255%,14.509805%);fill-opacity:1"/><path d="M0 15.367C0 6.855 7.137 0 16 0s16 6.855 16 15.367c0 8.516-7.137 15.371-16 15.371S0 23.883 0 15.368m0 0" style="stroke:none;fill-rule:evenodd;fill:rgb(96.078432%,52.156866%,21.176471%);fill-opacity:1"/><path d="M17.035 13.703H14.97l-1.11-9.156h4.286Zm8.219 6.742.824-.656-2.992-4.293-6.55-2.2L16 16.774l5.906.532Zm-18.508 0-.82-.656 2.988-4.293 6.55-2.2.536 3.477-5.906.532Zm6.281-15.898c0-1.582 1.328-2.856 2.973-2.856 1.645 0 2.969 1.274 2.969 2.856 0 1.578-1.324 2.851-2.969 2.851-1.645 0-2.973-1.273-2.973-2.851m0 0" style="stroke:none;fill-rule:evenodd;fill:rgb(100%,100%,100%);fill-opacity:1"/><path d="M16 7.652c-1.785 0-3.234-1.39-3.234-3.105 0-1.719 1.449-3.11 3.234-3.11s3.234 1.391 3.234 3.11c0 1.715-1.449 3.101-3.234 3.105m0-5.707c1.496 0 2.707 1.164 2.707 2.602 0 1.433-1.21 2.598-2.707 2.598-1.496 0-2.707-1.165-2.707-2.598 0-1.438 1.21-2.602 2.707-2.602m-.973 2.602c0-.52.434-.938.973-.938.54 0 .973.418.973.938 0 .516-.434.933-.973.933-.54 0-.973-.418-.973-.933m0 0" style="stroke:none;fill-rule:evenodd;fill:rgb(96.078432%,52.156866%,21.176471%);fill-opacity:1"/><path d="M13.86 15c0-1.14.953-2.055 2.14-2.055 1.188 0 2.14.914 2.14 2.055 0 1.14-.956 2.055-2.14 2.055-1.184 0-2.14-.914-2.14-2.055m0 0" style="stroke:none;fill-rule:evenodd;fill:rgb(100%,100%,100%);fill-opacity:1"/><path d="M16 17.309c-1.324-.004-2.398-1.036-2.398-2.309 0-1.273 1.074-2.305 2.398-2.309 1.324-.004 2.402 1.028 2.406 2.297a2.25 2.25 0 0 1-.703 1.64c-.45.434-1.062.68-1.703.68m0-4.118c1.035-.004 1.879.801 1.883 1.797.004.996-.836 1.809-1.871 1.809-1.04.004-1.88-.8-1.883-1.797-.004-.996.836-1.805 1.871-1.809v.004ZM15.344 15c0-.352.293-.633.656-.633.363 0 .656.281.656.633a.643.643 0 0 1-.656.633.643.643 0 0 1-.656-.633m0 0" style="stroke:none;fill-rule:evenodd;fill:rgb(96.078432%,52.156866%,21.176471%);fill-opacity:1"/><path d="M9.098 19.738h13.804v7.328H9.098Zm0 0" style="stroke:none;fill-rule:evenodd;fill:rgb(100%,100%,100%);fill-opacity:1"/><path d="M9.79 20.328h1.054v6.149H9.789Zm1.894 0h1.05v6.149h-1.05Zm1.898 0h1.05v6.149h-1.05Zm1.89 0h1.055v6.149h-1.054Zm1.895 0h1.051v6.149h-1.05Zm1.899 0h1.05v6.149h-1.05Zm1.89 0h1.055v6.149h-1.055Zm0 0" style="stroke:none;fill-rule:evenodd;fill:rgb(98.431373%,74.901962%,57.647061%);fill-opacity:1"/></svg>
